!!!COM: MacDowell, Edward
!!!CDT: 1860/12/18/-1908/01/23/
!!!OPR: 12 Etudes
!!!ODT: 1889///-1890///
!!!OTL: Hunting Song
!!!OPS: Op. 39
!!!ONM: No. 1
!!!OMD: Allegretto
**kern	**kern	**dynam
*staff2	*staff1	*staff1/2
*clefF4	*clefG2	*clefG2
*k[b-]	*k[b-]	*k[b-]
*M2/4	*M2/4	*M2/4
8r	8c/	pp
=1	=1	=1
2r	8.f/L	.
.	16e/Jk	.
.	8f'/L	.
.	8a'/J	.
=2	=2	=2
4r	4cc\	.
4C\ (4B-\	12e/ (12a/L	.
.	12g/	.
.	12a/J)	.
=3	=3	=3
4D\ 4A\)	8.d/ 8.f/L	.
.	16e/Jk	.
4r	8f'/L	.
.	8a'/J	.
=4	=4	=4
*	*^	*
4r	8cc'\L	4r	.
.	[8ee\J	.	.
4BBn\ (4G#\	12ee/L]	4f\	.
.	12dd/	.	.
.	12ee/J	.	.
*	*v	*v	*
=5	=5	=5
4C''\ 4A''\)	8.f/ 8.dd/L	.
.	16cc/Jk	.
4r	8a'/L	.
.	8f'/J	.
=6	=6	=6
*	*^	*
2GG/ 2F/	4d/	2Bn\	.
.	4a/	.	.
*	*v	*v	*
=7	=7	=7
2C\ 2B-\	2e/ 2a/ (2cc/	.
=8	=8	=8
(2BB-/ 2E/	4c/ 4g/	.
.	4c/)	.
=9	=9	=9
4AA/) 4F/	8.c/ 8.f/L	.
.	16e/Jk	.
4r	8f'/L	.
.	8a'/J	.
=10	=10	=10
4r	4cc\	.
(4BB-'/ 4E'/	12d-/ (12a/L	.
.	12g/	.
.	12a/J)	.
=11	=11	=11
4AA/) 4F/	8.c/ 8.f/L	.
.	16e/Jk	.
4r	8f'/L	.
.	8a'/J	.
=12	=12	=12
*	*^	*
4r	8cc'\L	4r	.
.	[8ff\J	.	.
4c\ 4e-\	4a\	(12ff/L]	.
.	.	12gg/	.
.	.	12ff/J)	.
*	*v	*v	*
=13	=13	=13
4B-^\ 4d^\ 4f^\	8.g^\ 8.gg^\L	f
.	16ff\Jk	.
8d'\L	8dd'\L	.
8B-'\J	8b-'\J	.
=14	=14	=14
8.A^\L	8.a^/L	.
16G\Jk	16g/Jk	.
8B-'\L	8b-'\L	.
8d'\J	8dd'\J	.
=15	=15	=15
4B-^\ 4d^\ 4f^\	8.g^\ 8.gg^\L	.
.	16ff\Jk	.
8d'\L	8dd'\L	.
8B-'\J	8b-'\J	.
=16	=16	=16
8.A^\L	8.a/L	.
16G\Jk	16g/Jk	.
(12B-\L	(12b-\L	.
12d\	12dd\	.
12f\J)	12ff\J)	.
=17	=17	=17
8.a\L	(8.aa^\L	ff
16g\Jk	16gg\Jk)	.
8f'\L	8ff'\L	.
8d'\J	8dd'\J	.
=18	=18	=18
8.B-\L	8.b-/L	.
16G\Jk	16g/Jk	.
8F'\L	8f'/L	.
8D'\J	8d'/J	.
=19	=19	=19
[2C\ 2B-\	(2e/ 2g/	.
=20	=20	=20
4.C\] 4.c\	4.e/ 4.a/	.
8C\ &(8B-\&)	8c/)	.
=21	=21	=21
4F\ 4A\	8.f/L	p
.	16e/Jk	.
4r	8f'/L	.
.	8a'/J	.
=22	=22	=22
4r	4cc\	.
4C\ (4B-\	12e/ (12a/L	.
.	12g/	.
.	12a/J)	.
=23	=23	=23
4D\ 4A\)	8.d/ 8.f/L	.
.	16e/Jk	.
4r	8f'/L	.
.	8a'/J	.
=24	=24	=24
*	*^	*
4r	8cc'\L	4r	.
.	([8ee\J	.	.
4GGn/ (4G#/	12ee/L]	4f\ 4bn\	.
.	12dd/	.	.
.	12ee/J)	.	.
*	*v	*v	*
=25	=25	=25
4C\ 4A\)	8.f/ 8.dd/L	.
.	16cc/Jk	.
4r	8a'/L	.
.	8f'/J	.
=26	=26	=26
*	*^	*
2GG/ 2F/	(4d/	2Bn\	.
.	4a/)	.	.
*	*v	*v	*
=27	=27	=27
2CC/ 2C/	2B-/ 2e/ (2g/	.
=28	=28	=28
4FF/ 4C/	4A/ 4f/)	.
8r	4r	.
8A'\	.	.
=29	=29	=29
(4d\	8r	.
.	8f/ 8a/ 8dd/	p
4A\	8r	.
.	8f/ 8a/ 8dd/	.
=30	=30	=30
4.c\	8r	.
.	8e/ 8a/ 8cc/	.
.	8r	.
8A\)	8e/ 8a/ 8cc/	.
=31	=31	=31
(4e\	8r	.
.	8f/ 8a/ 8dd/	.
8.d\L	8r	.
.	8f/ 8a/ 8dd/	.
16A\Jk	.	.
=32	=32	=32
4.c\)	8r	.
.	8e/ 8a/ 8cc/	.
.	8r	.
8r	8cc\	.
=33	=33	=33
*^	*^	*
8r	2G\	(4b-/	8r	p
4B-/ 4d/	.	.	4f\	.
.	.	4dd/	.	.
8B-/ 8d/	.	.	&(8e\&)	.
=34	=34	=34	=34	=34
8r	2A\	4.a/)	8r	.
4c#/	.	.	(4f\	.
8c#/	.	8a/	8e\)	.
=35	=35	=35	=35	=35
8r	2G\	(4b-/	8r	.
4B-/ 4d/	.	.	4f\	.
.	.	4dd/	.	.
8B-/ 8d/	.	.	&(8e\&)	.
=36	=36	=36	=36	=36
4.E\	8r	2a/)	8r	.
.	(4B-/	.	4c#\ 4g\	.
8A\)	8r	.	8c#\ 8g\	.
*v	*v	*	*	*
*	*v	*v	*
=37	=37	=37
(4d\	8r	.
.	8f/ 8a/ 8dd/	p
8A\L	8r	.
8Bn\J	8f/ 8a/ 8dd/	.
=38	=38	=38
4.c\)	8r	.
.	8e/ 8a/ 8cc/	.
.	8r	.
8A\	8e/ 8a/ 8cc/	.
=39	=39	=39
(8e^\L	8r	.
8d\	8f/ 8a/ 8dd/	.
8.A\	8r	.
.	8f/ 8a/ 8dd/	.
16Bn\Jk	.	.
=40	=40	=40
4.c\)	8r	.
.	8e/ 8a/ 8cc/	.
.	8r	.
8r	8cc\	.
=41	=41	=41
*^	*^	*
8r	2G\	(4b-/	8r	.
4B-/ 4d/	.	.	4f\	.
.	.	4dd/	.	.
8B-/ 8d/	.	.	&(8e\&)	.
=42	=42	=42	=42	=42
8r	2A\	4.a/)	8r	.
4c#/	.	.	(4f\	.
8c#/	.	8a/	8e\)	.
=43	=43	=43	=43	=43
8r	2D\	(4b-/	8r	.
4B-/	.	.	4f\	.
.	.	eeq/	.	.
.	.	4dd/	.	.
8B-/	.	.	8f\	.
=44	=44	=44	=44	=44
8r	4.C\	4.a/	8r	pp
(4c/	.	.	4e\	.
8C\ 8B-\	8r	8g/)	8e\	.
*v	*v	*	*	*
*	*v	*v	*
=45	=45	=45
4F'\ 4A'\)	8.f/L	p
.	16e/Jk	.
4r	8f'/L	.
.	8a'/J	.
=46	=46	=46
4r	4cc\	.
4C\ (4B-\	12e/ 12a/L	.
.	12g/	.
.	12a/J	.
=47	=47	=47
4D'\ 4A'\)	8.d/ 8.f/L	.
.	16e/Jk	.
4r	8f'/L	.
.	8a'/J	.
=48	=48	=48
*	*^	*
4r	8cc'\L	4r	.
.	[8ee\J	.	.
4BBn\ (4G#\	(12ee/L]	4f\	.
.	12dd/	.	.
.	12ee/J)	.	.
*	*v	*v	*
=49	=49	=49
4C'\ 4A'\)	8.f/ 8.dd/L	.
.	16cc/Jk	.
4r	8a'/L	.
.	8f'/J	.
=50	=50	=50
*	*^	*
2GG/ 2F/	(4d/	2Bn\	.
.	4a/)	.	.
*	*v	*v	*
=51	=51	=51
2C\ 2B-\	2e/ 2a/ (2cc/	.
=52	=52	=52
2BB-/ 2E/	4c/ 4g/	.
.	4c/)	.
=53	=53	=53
8.AA/ 8.F/L	8.c#/ 8.f/L	.
16E/Jk	16e/Jk	.
8F'\L	8f'/L	.
8G'\J	8g'/J	.
=54	=54	=54
4A\	4a/	.
4BB-/ 4E/	12d/ (12g/L	.
.	12f/	.
.	12g/J)	.
=55	=55	=55
8.AA/ 8.F/L	8.c#/ 8.f/L	.
16E/Jk	16e/Jk	.
8F'\L	8f'/L	.
8G'\J	8g'/J	.
=56	=56	=56
4A\	4a/	.
4BBn\ (4G\	12d/ 12g/L	.
.	12f/	.
.	12d/J	.
=57	=57	=57
8C\ 8F\ 8A\)	8.c/L	.
8r	.	.
.	16e/Jk	.
4r	8f'/L	.
.	8a'/J	.
=58	=58	=58
4r	4cc\	.
4C\ (4B-\	12e/ 12a/L	.
.	12g/	.
.	12a/J	.
=59	=59	=59
8C\ 8A\)	8.c/ 8.f/L	.
8r	.	.
.	16e/Jk	.
4r	8f'/L	.
.	8a'/J	.
=60	=60	=60
*	*^	*
4r	8cc'\L	4r	.
.	[8ff\J	.	.
4c\ (4e-\	(12ff/L]	4a\	.
.	12gg/	.	.
.	12ff/J)	.	.
*	*v	*v	*
=61	=61	=61
8B-\ 8d\ 8f\)	8.g^\ 8.gg^\L	.
8r	.	.
.	16ff\Jk	.
8d\L	8dd\L	.
8B-\J	8b-\J	.
=62	=62	=62
(8.A^\L	8.a^/L	.
16G\Jk)	16g/Jk	.
8B-\L	8b-\L	.
8d\J	8dd\J	.
=63	=63	=63
8B-^\ 8d^\ 8f^\	8.g^\ 8.gg^\L	.
8r	.	.
.	16ff\Jk	.
8d\L	8dd\L	.
8B-\J	8b-\J	.
=64	=64	=64
(8.A^\L	8.a^/L	.
16G\Jk)	16g/Jk	.
16B-\LL	16b-\LL	.
16d\	16dd\	.
16e\	16ee\	.
16f\JJ	16ff\JJ	.
=65	=65	=65
12a\L	12b-^\ 12dd^\ 12aa^\L	ff
12g\	12gg\	.
12f\J	12ff\J	.
12d\L	12dd\L	.
12B-\	12b-\	.
12G\J	12g\J	.
=66	=66	=66
12f^\L	12ff^\L	.
12d\	12dd\	.
12B-\J	12b-\J	.
12G\L	12g/L	.
12F\	12f/	.
12D\J	12d/J	.
=67	=67	=67
2C\ 2B-\	2e/ (2g/	.
=68	=68	=68
*^	*	*
4c/	2C\	4.e/ 4.a/	.
&(4B-/&)	.	.	.
.	.	8c/)	.
*v	*v	*	*
=69	=69	=69
8.F\L	8A/ 8c/ 8f/	pp
.	8r	.
16E\Jk	.	.
8F'\L	4r	.
8A'\J	.	.
=70	=70	=70
*^	*	*
2c/	4r	4r	.
.	8C'\ 8B-'\	12e/ 12a/ (12cc/L	.
.	.	12g/	.
.	8r	.	.
.	.	12a/J	.
*v	*v	*	*
=71	=71	=71
8.F\ 8.A\L	8f/)	.
.	8r	.
16E\Jk	.	.
8F\L	4r	.
8A\J	.	.
=72	=72	=72
*^	*	*
[2c/	4r	4r	.
*	*	*clefF4	*clefF4
.	8C\ 8B-\	8CC'/	.
.	8r	8r	.
=73	=73	=73	=73
2c/_	8F\ 8A\	8FF'/	.
.	8r	8r	.
.	4r	4r	.
=74	=74	=74	=74
2c/_	8C\ 8B-\	8CC'/	.
.	8r	8r	.
.	4r	4r	.
=75	=75	=75	=75
2c/]	8F\ 8A\	8FF'/	.
.	8r	8r	.
.	4r	4r	.
*v	*v	*	*
=76	=76	=76
8CC'/ 8C'/	8E'\ 8B-'\ 8c'\	.
8r	8r	.
4r	4r	.
=77	=77	=77
8FFF'/ 8FF'/	8A'\ 8c'\ 8f'\	.
8r	8r	.
4r	4r	.
==	==	==
*-	*-	*-
!!!ENC: Craig Stuart Sapp
!!!END: 2004/09/02/
